archdroid-icon-theme/Archdroid-Amber/apps/scalable/xfce4-panel-stock.svg

<svg height="48" width="48" xmlns="http://www.w3.org/2000/svg" xmlns:xlink="http://www.w3.org/1999/xlink"><linearGradient id="a"><stop offset="0" stop-color="#fff"/><stop offset="1" stop-color="#fff" stop-opacity="0"/></linearGradient><linearGradient id="b" gradientUnits="userSpaceOnUse" x1="31.874874" x2="47.437664" y1="9.4375" y2="9.4375"><stop offset="0" stop-color="#888a85"/><stop offset="1" stop-color="#888a85" stop-opacity="0"/></linearGradient><linearGradient id="c" gradientUnits="userSpaceOnUse" x1="31.872892" x2="46.704754" y1="12.6875" y2="12.6875"><stop offset="0" stop-color="#d3d7cf"/><stop offset="1" stop-color="#d3d7cf" stop-opacity="0"/></linearGradient><linearGradient id="d" gradientUnits="userSpaceOnUse" x1="23.99696" x2="45.753761" xlink:href="#a" y1="10.375" y2="10.375"/><radialGradient id="e" cx="3.623922" cy="2.004983" gradientTransform="matrix(.00000001 1.125998 -1.627297 0 6.886624 6.5312)" gradientUnits="userSpaceOnUse" r="23" xlink:href="#a"/><g transform="translate(-1.5)"><g stroke-linejoin="round"><path d="m2.5 9.5h46v29h-46z" fill="url(#c)" stroke="url(#b)"/><path d="m3.5 10.5h45v27h-45z" fill="none" opacity=".4" stroke="url(#d)"/><path d="m3.5 10.5h45v27h-45z" fill="none" stroke="url(#e)"/></g><g fill-opacity="1" fill-rule="evenodd" transform="matrix(.20289449 0 0 .20289449 -23.044102 -54.513084)"><path d="m143.756 326.774c.538-.09 13.953 6.991 22.97 9.438 16.079 4.109 30.756 16.476 37.85 23.58.526.608 6.093-4.168 11.919-3.824 7.958.482 32.582 7.406 35.872 2.691 1.995-2.768 1.852-6.164 4.341-7.555 1.34-.375-4.981-11.936 1.737-15.64 4.79-2.394 8.849 11.009 10.079 12.511.551.672 3.474.836 3.128-.695-.375-1.663-5.103-14.524.695-16.682 9.417-3.729 7.748 16.456 7.993 17.03.521 1.222 32.797 2.164 34.754 16.682 1.132 7.99-25.858 18.317-28.498 20.157-2.639 1.84-2.419 4.783-1.39 6.604 1.183 1.975 9.046 8.641 7.994 11.816-.723 1.834-15.398-4.888-16.335-3.475-2.137 2.699 10.683 9.455 6.256 14.249-1.755 1.148-21.947-8.454-21.896-8.341-.542.206-28.532 5.113-50.046-1.391-.758-.214-13.808 12.606-15.292 12.165-2.029-.744 2.991-11.15 2.433-13.207-.912-1.146-9.251 4.653-9.731 1.738-.574-3.831 7.318-8.235 6.951-10.774-2.035-14.424.909-22.847 5.908-29.888 1.667-2.592-19.592-18.646-34.983-24.982-15.39-6.336-23.624-11.706-22.709-12.207z" fill="#020202" stroke="#000002" stroke-width="1pt" transform="translate(4.86564 17.0296)"/><g stroke="#000" stroke-width=".6pt"><path d="m286.934 392.031c-.169-.59 10.503-7.045 12.048-5.561 2.781 1.008-11.95 6.31-12.048 5.561z" fill="#fff"/><path d="m292.031 397.901c-.94-.568 6.389-9.114 8.187-8.187 2.625 2.608-8.31 8.39-8.187 8.187z" fill="#fff"/><path d="m320.916 358.358c-.891-.737-7.878 10.287-6.333 11.431.929.695 6.731-11.038 6.333-11.431z" fill="#020202"/><ellipse cx="288.864746" cy="374.586548" fill="#fff" rx="3.012037" ry="3.398196" transform="matrix(.9253 0 0 .933788 22.0283 24.352)"/><path d="m320.916 358.358c-.441-.512-2.781 11.368-1.699 11.894.929.695 2.547-11.276 1.699-11.894z" fill="#020202" transform="translate(-8.0321 -1.54463)"/><path d="m321.366 357.908c-2.771 1.959 1.521 13.045 8.58 6.572-5.546.163-7.396-1.461-8.58-6.572z" fill="#fff" transform="translate(-38.3069 14.983)"/></g></g></g></svg>

<svg height="48" version="1.1" width="48" xmlns="http://www.w3.org/2000/svg" xmlns:xlink="http://www.w3.org/1999/xlink"><defs><linearGradient id="a"><stop offset="0" stop-color="#fff"/><stop offset="1" stop-color="#fff" stop-opacity="0"/></linearGradient><linearGradient id="b"><stop offset="0" stop-color="#d3d7cf"/><stop offset="1" stop-color="#d3d7cf" stop-opacity="0"/></linearGradient><linearGradient id="c"><stop offset="0" stop-color="#888a85"/><stop offset="1" stop-color="#888a85" stop-opacity="0"/></linearGradient><linearGradient id="d" gradientTransform="translate(0 -8)" gradientUnits="userSpaceOnUse" x1="31.874874" x2="47.437664" xlink:href="#c" y1="17.4375" y2="17.4375"/><linearGradient id="e" gradientTransform="translate(0 -8)" gradientUnits="userSpaceOnUse" x1="31.872892" x2="46.704754" xlink:href="#b" y1="20.6875" y2="20.6875"/><linearGradient id="f" gradientTransform="translate(0 -8)" gradientUnits="userSpaceOnUse" x1="23.99696" x2="45.753761" xlink:href="#a" y1="18.375" y2="18.375"/><radialGradient id="g" cx="3.623922" cy="2.004983" fx="3.623922" fy="2.004983" gradientTransform="matrix(1e-8 1.125998 -1.627297 0 6.886624 6.5312)" gradientUnits="userSpaceOnUse" r="23" xlink:href="#a"/></defs><g transform="translate(-1.5)"><path d="M2.5 9.5H48.5V38.5H2.5Z" fill="url(#e)" stroke="url(#d)" stroke-linejoin="round"/><path d="M3.5 10.5H48.5V37.5H3.5Z" fill="none" opacity=".4" stroke="url(#f)" stroke-linejoin="round"/><path d="M3.5 10.5H48.5V37.5H3.5Z" fill="none" stroke="url(#g)" stroke-linejoin="round"/><g fill-opacity=".5" transform="matrix(.20289449 0 0 .20289449 -23.044102 -54.513084)"><path d="m143.756 326.774c.538-.09 13.953 6.991 22.97 9.438 16.079 4.109 30.756 16.476 37.85 23.58.526.608 6.093-4.168 11.919-3.824 7.958.482 32.582 7.406 35.872 2.691C254.362 355.891 254.219 352.495 256.708 351.104c1.34-.375-4.981-11.936 1.737-15.64 4.79-2.394 8.849 11.009 10.079 12.511.551.672 3.474.836 3.128-.695C271.277 345.617 266.549 332.756 272.347 330.598c9.417-3.729 7.748 16.456 7.993 17.03.521 1.222 32.797 2.164 34.754 16.682 1.132 7.99-25.858 18.317-28.498 20.157-2.639 1.84-2.419 4.783-1.39 6.604 1.183 1.975 9.046 8.641 7.994 11.816-.723 1.834-15.398-4.888-16.335-3.475-2.137 2.699 10.683 9.455 6.256 14.249-1.755 1.148-21.947-8.454-21.896-8.341-.542.206-28.532 5.113-50.046-1.391-.758-.214-13.808 12.606-15.292 12.165-2.029-.744 2.991-11.15 2.433-13.207-.912-1.146-9.251 4.653-9.731 1.738-.574-3.831 7.318-8.235 6.951-10.774-2.035-14.424.909-22.847 5.908-29.888 1.667-2.592-19.592-18.646-34.983-24.982-15.39-6.336-23.624-11.706-22.709-12.207z" fill="#020202" fill-opacity="1" fill-rule="evenodd" stroke="#000002" stroke-width="1pt" transform="translate(4.86564 17.0296)"/><path d="m286.934 392.031c-.169-.59 10.503-7.045 12.048-5.561C301.763 387.478 287.032 392.78 286.934 392.031Z" fill="#fff" fill-opacity="1" fill-rule="evenodd" stroke="#000" stroke-width=".6pt"/><path d="m292.031 397.901c-.94-.568 6.389-9.114 8.187-8.187 2.625 2.608-8.31 8.39-8.187 8.187z" fill="#fff" fill-opacity="1" fill-rule="evenodd" stroke="#000" stroke-width=".6pt"/><path d="m320.916 358.358c-.891-.737-7.878 10.287-6.333 11.431.929.695 6.731-11.038 6.333-11.431z" fill="#020202" fill-opacity="1" fill-rule="evenodd" stroke="#000" stroke-width=".6pt"/><ellipse cx="288.864746" cy="374.586548" fill="#fff" fill-opacity="1" fill-rule="evenodd" rx="3.012037" ry="3.398196" stroke="#000" stroke-width=".6pt" transform="matrix(.9253 0 0 .933788 22.0283 24.352)"/><path d="m320.916 358.358c-.441-.512-2.781 11.368-1.699 11.894.929.695 2.547-11.276 1.699-11.894z" fill="#020202" fill-opacity="1" fill-rule="evenodd" stroke="#000" stroke-width=".6pt" transform="translate(-8.0321 -1.54463)"/><path d="m321.366 357.908c-2.771 1.959 1.521 13.045 8.58 6.572-5.546.163-7.396-1.461-8.58-6.572z" fill="#fff" fill-opacity="1" fill-rule="evenodd" stroke="#000" stroke-width=".6pt" transform="translate(-38.3069 14.983)"/></g></g></svg>
